svgs/sharp-thin/solar-panel.svg

<svg xmlns="http://www.w3.org/2000/svg" viewBox="0 0 640 512"><!--! Font Awesome Pro 6.6.0 by @fontawesome - https://fontawesome.com License - https://fontawesome.com/license (Commercial License) Copyright 2024 Fonticons, Inc. --><path d="M16 326.3L16 368l296 0 16 0 296 0 0-41.7L556.9 16 83.1 16 16 326.3zM624 384l-296 0 0 112 112 0 8 0 0 16-8 0-112 0-16 0-112 0-8 0 0-16 8 0 112 0 0-112L16 384 0 384l0-16 0-43.4L70.2 0 569.8 0 640 324.6l0 43.4 0 16-16 0zM82.8 320l-16.4 0 3.5-16L121.8 64l396.4 0 51.9 240 3.5 16-16.4 0L82.8 320zm144.1-16l9-104-127.1 0L86.3 304l140.6 0zm16.1 0L397 304l-9-104L252 200l-9 104zm170.1 0l140.6 0L531.2 200l-127.1 0 9 104zM527.8 184L505.3 80 393.7 80l9 104 125 0zM377.6 80L262.4 80l-9 104 133.3 0-9-104zM246.3 80L134.7 80 112.2 184l125 0 9-104z"/></svg>

<svg xmlns="http://www.w3.org/2000/svg" viewBox="0 0 640 512"><!--! Font Awesome Pro 6.5.2 by @fontawesome - https://fontawesome.com License - https://fontawesome.com/license (Commercial License) Copyright 2024 Fonticons, Inc. --><path d="M16 326.3V368H312h16H624V326.3L556.9 16H83.1L16 326.3zM624 384H328V496H440h8v16h-8H328 312 200h-8V496h8H312V384H16 0V368 324.6L70.2 0H569.8L640 324.6V368v16H624zM82.8 320H66.5l3.5-16L121.8 64H518.2l51.9 240 3.5 16H557.2 82.8zm144.1-16l9-104H108.8L86.3 304H226.9zm16.1 0H397l-9-104H252l-9 104zm170.1 0H553.7L531.2 200H404.1l9 104zM527.8 184L505.3 80H393.7l9 104h125zM377.6 80H262.4l-9 104H386.6l-9-104zM246.3 80H134.7L112.2 184h125l9-104z"/></svg>
